!!!OTL: WIR WOLLEN VERGNUEGT UND EINSAM LEBEN
!!!ARE: Europa, Mitteleuropa, Deutschland, Westfalen
!!!SCT: E0602A
!!!YEM: Copyright 1995, estate of Helmut Schaffrath.
**kern
*ICvox
*Ivox
*M3/8
*k[f#]
*G:
{8g
=1
8g
8d
8b
=2
8b
8g}
{8dd
=3
8dd
8cc
8b
=4
8b
8a}
{16a
16b
=5
8cc
8b
8g
=6
8b
8a}
{16a
16b
=7
8cc
8b
8g
=8
8b
8a}
{16g
16b
=9
4dd
8ee
=10
8.dd
16cc}
{8b
=11
8ee
8dd
8f#
=12
4g}
==
!!!AGN: Liebes - Lied
!!!ONB: ESAC (Essen Associative Code) Database: ERK1
!!!AMT: simple triple
!!!AIN: vox
!!!EED: Helmut Schaffrath
!!!EEV: 1.0
*-
